X:5060
T:the Reaper Dance
A:North-West
M:6/8
N:P18 1/2
O:England
R:Jig
%%TUNEURL: http://www.leeds.ac.uk/music/Info/RRTuneBk/gettune/00000583.html
%%ID:00000583
K:A
a2a e2e|f2f e2c|d2f ecA|BcA GFE|\
a2a e2e|f2f e2c|def ecA|B3A3:|
|:c2c B2c|d2d c3|fga ecA|BcA GFE|\
c2c B2c|d2d c3|fga ecA|B3 A3:|
